X:1
T:Alabama Dream
T:Alabama Dream
T:A Rag Time Cake Walk
%%score { ( 1 4 ) | ( 2 3 ) }
L:1/8
Q:1/4=100
M:2/4
K:F
V:1 treble nm="Piano" snm="Pno."
V:4 treble 
V:2 treble 
V:3 treble 
V:1
"^Tempo di Marcia"!f! a/c'a/ c'c'/a/ | c'/d'c'/ d'/c'/a/f/ |!ff! D/FD/ F/D/C/A,/ | %3
 C z !>![egc'] z ||!mf! a/c'a/ c'c'/a/ | c'/d'c'/ d'/c'/a/f/ | d/fg/ fd | f3 g | a/c'a/ c'c'/a/ | %9
 c'/d'c'/ d'/c'/a/f/ | d/fd/ fa | g4 | a/c'a/ c'c'/a/ | c'/d'c'/ d'/c'/a/f/ | d/fg/ fd | f3!f! C | %16
 D/FD/ FF/D/ | C/DD/ C/A,/F, | [ca]/[ca][Af]/ [Bg][Bg] | [Af] z !>![egc'] z |!mf! a/c'a/ c'c'/a/ | %21
 c'/d'c'/ d'/c'/a/f/ | d/fg/ fd | f3 g | a/c'a/ c'c'/a/ | c'/d'c'/ d'/c'/a/f/ | d/fd/ fa | g4 | %28
 a/c'a/ c'c'/a/ | c'/d'c'/ d'/c'/a/f/ | d/fg/ fd | f3!f! C | D/FD/ FF/D/ | C/DD/ C/A,/F, | %34
 [ca]/[ca][Af]/ [Bg][Bg] |!<(! [Af]c/c/ cc!<)! |:"^marcato."!ff! [cegc'] !>![cegc']2 [Aa] | %37
 [Gg]>[Aa] [Gg][Cc] | [Acfa] !>![Acfa]2 [Ff] | [Dd]>[Ee] [Dd][Cc] | [GBe] !>![GBe]2 [GBc] | %41
 [GBd]>[GBe] [GBd][GBc] | [FAcf] !>![FAcf]2 [FAc] | [FAd]>[FAe] [FAd][FAc] | %44
 [cegc'] !>![cegc']2 [Aa] | [Gg]>[Aa] [Gg][Cc] | [Acfa] !>![Acfa]2 [Ff] | [Dd]/[Dd][Ee]/ [Dd][Cc] | %48
 [FBf] !>![FBf]2 [G=Bg] | a/c'a/ c'a | [Beg] !>![Beg]2 [Bea] |1 [Af]c/c/ cc :|2 %52
!>(! [Af]c/c/ !>!f!>!e!>)! |:"_p" z (c/=B/ c/B/c/B/ | c) x !>!f!>!e | z (c/=B/ c/B/c/B/ | %56
 c) x"_cresc." gf | [GBf]/[GBe][GBc]/ [GBf][GBe] | [cea]/[ceg][ce]/ [cea][ceg] | %59
 [Acg]/[Acf][Ace]/!ff! [Acf][ca] |!>(! !>![cc']c/c/ !>!f!>!e!>)! |"_p" z (c/=B/ c/B/c/B/ | %62
 c) x !>!f!>!e | z (c/=B/ c/B/c/B/ | c) x"_cresc." gf | e/d^c/ da | c'/ba/ bd | %67
!f! c/ac/ [ca][Bg] |1!>(! [Af]c/c/ fe!>)! :|2 [Af] z [Af] z |:[K:Bb]"^TRIO.""_p" f/d'c'/ ac' | %71
 a/c'a/ c'/b/f/d/ | c/ag/ ca/g/ | c3 B | A/ag/ Aa/g/ | A3 c | B/gf/ Bg/f/ |!ff! B/dB/ Fd | %78
"_p" f/d'c'/ ac' | a/c'a/ c'/b/f/d/ | c/ag/ ca/g/ | c3 B | A/gf/ Ag/f/ | B/gf/ BF | G/AB/ cd |1 %85
!<(! B.f/.f/!<)!!>(! (g/f/)(g/f/)!>)! :|!<(! Bf/f/ ff!<)! ||!ff! [fac'f'] !>![fac'f']2 [dd'] | %88
 [cc']>[dd'] [cc'][Ff] | [dfbd'] !>![dfbd']2 [Bb] | [Gg]>[Aa] [Gg][Ff] | [cea] !>![cea]2 [cef] | %92
 [ceg]>[cea] [ceg][cef] | [Bdfb] !>![Bdfb]2 [Bdf] | [dg]>[da] [dg][df] | %95
 [fac'f'] !>![fac'f']2 [dd'] | [cc']/[cc'][dd']/ [cc'][Ff] | [dfbd'] !>![dfbd']2 [Bb] | %98
 [Gg]/[Gg][Aa]/ [Gg][Ff] | [Beb] !>![Beb]2 [c=ec'] | d'/f'd'/ f'd' | [eac'] !>![eac']2 [ead'] | %102
 [dfb]f/f/ ff |!ff! [fac'f'] !>![fac'f']2 [dd'] | [cc']>[dd'] [cc'][Ff] | %105
 [dfbd'] !>![dfbd']2 [Bb] | [Gg]>[Aa] [Gg][Ff] | [cea] !>![cea]2 [cef] | [ceg]>[cea] [ceg][cef] | %109
 [Bdfb] !>![Bdfb]2 [Bdf] | [dg]>[da] [dg][df] | [fac'f'] !>![fac'f']2 [dd'] | %112
 [cc']/[cc'][dd']/ [cc'][Ff] | [dfbd'] !>![dfbd']2 [Bb] | [Gg]/[Gg][Aa]/ [Gg][Ff] | %115
 [Beb] !>![Beb]2 [c=ec'] | d'/f'd'/ f'd' | [eac'] !>![eac']2 [ead'] | [dfb] z !>![Bdfb] z |] %119
V:2
 A/cA/ cc/A/ | c/dc/ d/c/A/F/ |[K:bass] D,/F,D,/ F,/D,/C,/A,,/ | C, z !>![C,,C,] z || %4
 F,[A,C] C,[A,C] | F,[A,C] C,[A,C] | F,[B,D] F,[B,D] | F,[A,C][A,C] z | F,[A,C] C,[A,C] | %9
 F,[A,C] F,[A,C] | G,[=B,DF] G,[B,DF] | [C,C][_B,,_B,][A,,A,][G,,G,] | [F,,F,][A,C] C,[A,C] | %13
 F,[A,C]C,[A,C] | F,[B,D] F,[B,D] | F,[A,C][A,C] C, | D,/F,D,/ F,F,/D,/ | C,/D,D,/ C,/A,,/F,, | %18
 C,[F,A,] C,[E,G,B,] | [F,A,] z !>![C,,C,] z | F,[A,C] C,[A,C] | F,[A,C] C,[A,C] | %22
 F,[B,D] F,[B,D] | F,[A,C][A,C] z | F,[A,C] C,[A,C] | F,[A,C] F,[A,C] | G,[=B,DF] G,[B,DF] | %27
 [C,C][_B,,_B,][A,,A,][G,,G,] | [F,,F,][A,C] C,[A,C] | F,[A,C] C,[A,C] | F,[B,D] F,[B,D] | %31
 F,[A,C][A,C] C, | D,/F,D,/ F,F,/D,/ | C,/D,D,/ C,/A,,/F,, | C,[F,A,] C,[E,G,B,] | [F,A,] z z2 |: %36
 G,,[E,G,B,] C,[E,G,B,] | G,,[E,G,B,] C,[E,G,B,] | F,,[F,A,] C,[F,A,] | F,,[F,A,] C,[F,A,] | %40
 G,,[E,G,B,] C,[E,G,B,] | G,,[E,G,B,] C,[E,G,B,] | F,,[F,A,] C,[F,A,] | %43
 F,,[C,F,A,] [C,F,A,][C,F,A,] | G,,[E,G,B,] C,[E,G,B,] | G,,[E,G,B,] C,[E,G,B,] | %46
 F,,[F,A,] C,[F,A,] | F,,[F,A,] C,[F,A,] | [D,,D,] !>![D,,D,]2 [_D,,_D,] | %49
 z [F,A,C][F,A,C][F,A,C] | [C,,C,] !>![C,,C,]2 [C,,C,] |1 [F,,F,] z z2 :|2 [F,,F,] z z2 |: %53
!mp! G,,[E,G,B,] C,[E,G,B,] | G,,[E,G,B,] C,[E,G,B,] | F,,[F,A,] C,[F,A,] | %56
 F,,[F,A,]!<(! C,[F,A,] | G,,[E,G,B,] C,[E,G,B,]!<)! | G,,[E,G,B,] C,[E,G,B,] | F,[A,C] F,[A,C] | %60
 !>![F,A,C] z z2 |!mp! G,,[E,G,B,] C,[E,G,B,] | G,,[E,G,B,] C,[E,G,B,] | F,,[F,A,] C,[F,A,] | %64
 F,,[C,F,A,]!<(! [C,F,A,][C,F,A,] | B,,[D,G,] G,,[D,G,]!<)! | B,,[D,G,] G,,[D,G,] | %67
 C,[F,A,] C,[E,G,B,] |1 [F,A,] z z2 :|2 [F,A,] z [F,,F,] z |:[K:Bb]!mp! B,,[B,D] F,[B,D] | %71
 B,,[B,D] D,[B,D] | =E,[G,C] E,[G,C] | =E,/A,G,/ C,2 | F,[A,CE] F,[A,CE] | F,/DC/ A,2 | %76
 B,,[D,F,B,] B,,[D,F,B,] | B,/DB,/ F,2 | B,,[B,D] F,[B,D] | B,,[B,D] D,[F,B,D] | E,[G,C] E,[G,C] | %81
 E,/A,G,/ C,2 | F,[A,CE] F,[A,CE] | B,,[F,B,D] B,,[F,B,D] | C,[=E,G,B,] F,[A,C_E] |1 %85
 [B,D].F,/.F,/ (G,/F,/)(G,/F,/) :| [B,D]F,/F,/ F,F, || C,[A,CE] F,[A,CE] | C,[A,CE] F,[A,CE] | %89
 B,,[B,D] F,[B,D] | B,,[B,D] F,[B,D] | C,[A,CE] F,[A,CE] | C,[A,CE] F,[A,CE] | B,,[B,D] F,[B,D] | %94
 B,,[F,B,D] [F,B,D][F,B,D] | C,[A,CE] F,[A,CE] | C,[A,CE] F,[A,CE] | B,,[B,D] F,[B,D] | %98
 B,,[F,B,D] [F,B,D][F,B,D] | [G,,G,] !>![G,,G,]2 [_G,,_G,] | z [B,D][B,D][B,D] | %101
 [F,,F,] [F,,F,]2 [F,,,F,,] | [B,,,B,,]F,/F,/ F,F, | C,[A,CE] F,[A,CE] | C,[A,CE] F,[A,CE] | %105
 B,,[B,D] F,[B,D] | B,,[B,D] F,[B,D] | C,[A,CE] F,[A,CE] | C,[A,CE] F,[A,CE] | B,,[B,D] F,[B,D] | %110
 B,,[F,B,D] [F,B,D][F,B,D] | C,[A,CE] F,[A,CE] | C,[A,CE] F,[A,CE] | B,,[B,D] F,[B,D] | %114
 B,,[F,B,D][F,B,D][F,B,D] | [G,,G,] !>![G,,G,]2 [_G,,_G,] | z [B,D][B,D][B,D] | %117
 [F,,F,] [F,,F,]2 [F,,,F,,] | [B,,,B,,] z !>![B,,,B,,] z |] %119
V:3
 x4 | x4 |[K:bass] x4 | x4 || x4 | x4 | x4 | x4 | x4 | x4 | x4 | x4 | x4 | x4 | x4 | x4 | x4 | x4 | %18
 x4 | x4 | x4 | x4 | x4 | x4 | x4 | x4 | x4 | x4 | x4 | x4 | x4 | x4 | x4 | x4 | x4 | x4 |: x4 | %37
 x4 | x4 | x4 | x4 | x4 | x4 | x4 | x4 | x4 | x4 | x4 | x4 | [C,,C,]4 | x4 |1 x4 :|2 x4 |: x4 | %54
 x4 | x4 | x4 | x4 | x4 | x4 | x4 | x4 | x4 | x4 | x4 | x4 | x4 | x4 |1 x4 :|2 x4 |:[K:Bb] x4 | %71
 x4 | x4 | x4 | x4 | x4 | x4 | x4 | x4 | x4 | x4 | x4 | x4 | x4 | x4 |1 x4 :| x4 || x4 | x4 | x4 | %90
 x4 | x4 | x4 | x4 | x4 | x4 | x4 | x4 | x4 | x4 | [F,,F,]4 | x4 | x4 | x4 | x4 | x4 | x4 | x4 | %108
 x4 | x4 | x4 | x4 | x4 | x4 | x4 | x4 | [F,,F,]4 | x4 | x4 |] %119
V:4
 x4 | x4 | x4 | x4 || x4 | x4 | x4 | x4 | x4 | x4 | x4 | x4 | x4 | x4 | x4 | x4 | x4 | x4 | x4 | %19
 x4 | x4 | x4 | x4 | x4 | x4 | x4 | x4 | x4 | x4 | x4 | x4 | x4 | x4 | x4 | x4 | x4 |: x4 | x4 | %38
 x4 | x4 | x4 | x4 | x4 | x4 | x4 | x4 | x4 | x4 | x4 | x4 | x4 |1 x4 :|2 x4 |: !>!E4- | Ec/c/ x2 | %55
 F4- | Fc/c/ x2 | x4 | x4 | x4 | x4 | !>!E4- | Ec/c/ x2 | !>!F4- | Fc/c/ x2 | x4 | x4 | x4 |1 %68
 x4 :|2 x4 |:[K:Bb] x4 | x4 | x4 | x4 | x4 | x4 | x4 | x4 | x4 | x4 | x4 | x4 | x4 | x4 | x4 |1 %85
 x4 :| x4 || x4 | x4 | x4 | x4 | x4 | x4 | x4 | x4 | x4 | x4 | x4 | x4 | x4 | x4 | x4 | x4 | x4 | %104
 x4 | x4 | x4 | x4 | x4 | x4 | x4 | x4 | x4 | x4 | x4 | x4 | x4 | x4 | x4 |] %119

